assets/images/icon/event-icons/qr.svg

<svg width="85" height="94" viewBox="0 0 85 94" fill="none" xmlns="http://www.w3.org/2000/svg">
<g clip-path="url(#clip0_2230_100)">
<path d="M49.1004 52.0943C50.0004 52.0943 50.8004 51.325 50.8004 50.2259C50.8004 49.2368 50.1004 48.3576 49.1004 48.3576C48.1004 48.3576 47.4004 49.1269 47.4004 50.2259C47.4004 51.325 48.1004 52.0943 49.1004 52.0943Z" fill="#B3B3C5"/>
<path d="M12.6004 52.0943C13.5004 52.0943 14.3004 51.325 14.3004 50.2259C14.3004 49.2368 13.6004 48.3576 12.6004 48.3576C11.7004 48.3576 10.9004 49.1269 10.9004 50.2259C10.9004 51.325 11.7004 52.0943 12.6004 52.0943Z" fill="#B3B3C5"/>
<path d="M1.7 22.9698C2.6 22.9698 3.4 22.2005 3.4 21.1015V3.62681H19.3C20.2 3.62681 21 2.85749 21 1.75845C21 0.769319 20.3 -0.109909 19.3 -0.109909H1.7C0.7 -5.50598e-06 0 0.769319 0 1.86835V21.2114C0 22.0906 0.7 22.9698 1.7 22.9698Z" fill="#B3B3C5"/>
<path d="M20.9 91.4397C20.9 90.4506 20.2 89.5714 19.2 89.5714H3.3V72.0967C3.3 71.1076 2.6 70.2283 1.6 70.2283C0.7 70.3383 0 71.1076 0 72.0967V91.4397C0 92.4289 0.7 93.3081 1.7 93.3081H19.3C20.1 93.3081 20.9 92.4289 20.9 91.4397Z" fill="#B3B3C5"/>
<path d="M83.2004 70.3383C82.3004 70.3383 81.5004 71.1076 81.5004 72.2066V89.6813H65.6004C64.7004 89.6813 63.9004 90.4506 63.9004 91.5497C63.9004 92.5388 64.6004 93.418 65.6004 93.418H83.2004C84.1004 93.418 84.9004 92.6487 84.9004 91.5497V72.0967C84.9004 71.1076 84.1004 70.3383 83.2004 70.3383Z" fill="#B3B3C5"/>
<path d="M83.2 0H65.6C64.7 0 64 0.769325 64 1.86836C64 2.85749 64.7 3.73672 65.7 3.73672H81.6V21.2114C81.6 22.2005 82.3 23.0797 83.3 23.0797C84.2 23.0797 85 22.3104 85 21.2114V1.86836C84.9 0.769325 84.1 0 83.2 0Z" fill="#B3B3C5"/>
<path d="M10.9004 79.4603C10.9004 80.4494 11.6004 81.3286 12.6004 81.3286H29.2004C30.1004 81.3286 30.9004 80.5593 30.9004 79.4603V61.2163C30.9004 60.2271 30.2004 59.3479 29.2004 59.3479H12.6004C11.7004 59.3479 10.9004 60.1172 10.9004 61.2163V79.4603ZM14.3004 62.9747H27.6004V77.5919H14.3004V62.9747Z" fill="#B3B3C5"/>
<path d="M29.2004 11.9795H12.6004C11.7004 11.9795 10.9004 12.7488 10.9004 13.8478V32.0918C10.9004 33.081 11.6004 33.9602 12.6004 33.9602H29.2004C30.1004 33.9602 30.9004 33.1909 30.9004 32.0918V13.8478C30.8004 12.8587 30.1004 11.9795 29.2004 11.9795ZM27.5004 30.2235H14.3004V15.7162H27.6004V30.2235H27.5004Z" fill="#B3B3C5"/>
<path d="M73.9 13.8478C73.9 12.8587 73.2 11.9795 72.2 11.9795H55.7C54.8 11.9795 54 12.7488 54 13.8478V32.0918C54 33.081 54.7 33.9602 55.7 33.9602H72.3C73.2 33.9602 74 33.1909 74 32.0918V13.8478H73.9ZM70.6 30.2235H57.3V15.7162H70.6V30.2235Z" fill="#B3B3C5"/>
<path d="M73.9 79.4603V61.2163C73.9 60.2271 73.2 59.3479 72.2 59.3479H55.7C54.8 59.3479 54 60.1172 54 61.2163V79.4603C54 80.4494 54.7 81.3286 55.7 81.3286H72.3C73.2 81.2187 73.9 80.4494 73.9 79.4603ZM70.6 77.5919H57.3V62.9747H70.6V77.5919Z" fill="#B3B3C5"/>
<path d="M22.5 66.7114H19.2C18.3 66.7114 17.5 67.4808 17.5 68.5798V72.2066C17.5 73.1957 18.2 74.075 19.2 74.075H22.5C23.4 74.075 24.2 73.3057 24.2 72.2066V68.5798C24.2 67.4808 23.5 66.7114 22.5 66.7114Z" fill="#B3B3C5"/>
<path d="M19.2 26.5967H22.5C23.4 26.5967 24.2 25.8273 24.2 24.7283V21.1015C24.2 20.1123 23.5 19.2331 22.5 19.2331H19.2C18.3 19.2331 17.5 20.0024 17.5 21.1015V24.7283C17.6 25.8273 18.3 26.5967 19.2 26.5967Z" fill="#B3B3C5"/>
<path d="M62.2996 26.5967H65.5996C66.4996 26.5967 67.2996 25.8273 67.2996 24.7283V21.1015C67.2996 20.1123 66.5996 19.2331 65.5996 19.2331H62.2996C61.3996 19.2331 60.5996 20.0024 60.5996 21.1015V24.7283C60.6996 25.8273 61.3996 26.5967 62.2996 26.5967Z" fill="#B3B3C5"/>
<path d="M62.2996 73.9651H65.5996C66.4996 73.9651 67.2996 73.1957 67.2996 72.0967V68.4699C67.2996 67.4808 66.5996 66.6015 65.5996 66.6015H62.2996C61.3996 66.6015 60.5996 67.3709 60.5996 68.4699V72.0967C60.6996 73.0858 61.3996 73.9651 62.2996 73.9651Z" fill="#B3B3C5"/>
<path d="M17.5996 50.2259C17.5996 51.215 18.2996 52.0943 19.2996 52.0943H40.7996V61.2163C40.7996 62.2054 41.4996 63.0846 42.4996 63.0846C43.4996 63.0846 44.1996 62.3153 44.1996 61.2163V50.3358C44.1996 49.3467 43.4996 48.4675 42.4996 48.4675H19.1996C18.2996 48.4675 17.5996 49.2368 17.5996 50.2259Z" fill="#B3B3C5"/>
<path d="M29.2004 44.8406C30.1004 44.8406 30.9004 44.0713 30.9004 42.9723C30.9004 41.9831 30.2004 41.1039 29.2004 41.1039H12.6004C11.7004 41.1039 10.9004 41.8732 10.9004 42.9723C10.9004 43.9614 11.6004 44.8406 12.6004 44.8406H29.2004Z" fill="#B3B3C5"/>
<path d="M35.7996 44.8406H42.3996C43.2996 44.8406 44.0996 44.0713 44.0996 42.9723C44.0996 41.9831 43.3996 41.1039 42.3996 41.1039H35.7996C34.8996 41.1039 34.0996 41.8732 34.0996 42.9723C34.0996 43.9614 34.8996 44.8406 35.7996 44.8406Z" fill="#B3B3C5"/>
<path d="M35.7996 11.9795C34.8996 11.9795 34.0996 12.7488 34.0996 13.8478V32.0918C34.0996 33.081 34.7996 33.9602 35.7996 33.9602H47.3996V43.0822C47.3996 44.0713 48.0996 44.9505 49.0996 44.9505H55.6996C56.5996 44.9505 57.3996 44.1812 57.3996 43.0822C57.3996 42.0931 56.6996 41.2138 55.6996 41.2138H50.6996V32.0918C50.6996 31.1027 49.9996 30.2235 48.9996 30.2235H37.4996V13.8478C37.4996 12.8587 36.6996 11.9795 35.7996 11.9795Z" fill="#B3B3C5"/>
<path d="M72.2992 41.2138H62.3992C61.4992 41.2138 60.6992 41.9831 60.6992 43.0822C60.6992 44.0713 61.3992 44.9505 62.3992 44.9505H72.2992C73.1992 44.9505 73.9992 44.1812 73.9992 43.0822C73.8992 41.9831 73.1992 41.2138 72.2992 41.2138Z" fill="#B3B3C5"/>
<path d="M72.3 48.4675H55.7C54.8 48.4675 54 49.2368 54 50.3358C54 51.3249 54.7 52.2042 55.7 52.2042H72.3C73.2 52.2042 74 51.4348 74 50.3358C73.9 49.2368 73.2 48.4675 72.3 48.4675Z" fill="#B3B3C5"/>
<path d="M42.3996 66.7114H35.7996C34.8996 66.7114 34.0996 67.4808 34.0996 68.5798V79.4602C34.0996 80.4494 34.7996 81.3286 35.7996 81.3286C36.6996 81.3286 37.4996 80.5593 37.4996 79.4602V70.3383H42.4996C43.3996 70.3383 44.1996 69.5689 44.1996 68.4699C44.1996 67.3709 43.2996 66.7114 42.3996 66.7114Z" fill="#B3B3C5"/>
<path d="M47.3992 77.5919H42.3992C41.4992 77.5919 40.6992 78.3612 40.6992 79.4603C40.6992 80.4494 41.3992 81.3286 42.3992 81.3286H48.9992C49.8992 81.3286 50.6992 80.5593 50.6992 79.4603V57.5895C50.6992 56.6003 49.9992 55.7211 48.9992 55.7211C48.0992 55.7211 47.2992 56.4904 47.2992 57.5895V77.5919H47.3992Z" fill="#B3B3C5"/>
<path d="M49.0992 26.5966C49.9992 26.5966 50.7992 25.8273 50.7992 24.7283V13.8478C50.7992 12.8587 50.0992 11.9795 49.0992 11.9795C48.1992 11.9795 47.3992 12.7488 47.3992 13.8478V22.9698H42.3992C41.4992 22.9698 40.6992 23.7392 40.6992 24.8382C40.6992 25.8273 41.3992 26.7065 42.3992 26.7065H49.0992V26.5966Z" fill="#B3B3C5"/>
</g>
<defs>
<clipPath id="clip0_2230_100">
<rect width="84.9" height="93.3081" fill="white"/>
</clipPath>
</defs>
</svg>

<svg width="85" height="94" fill="none" xmlns="http://www.w3.org/2000/svg"><g clip-path="url(#a)" fill="#B3B3C5"><path d="M49.1 52.094c.9 0 1.7-.769 1.7-1.868 0-.99-.7-1.868-1.7-1.868s-1.7.769-1.7 1.868c0 1.099.7 1.868 1.7 1.868Zm-36.5 0c.9 0 1.7-.769 1.7-1.868 0-.99-.7-1.868-1.7-1.868-.9 0-1.7.769-1.7 1.868 0 1.099.8 1.868 1.7 1.868ZM1.7 22.97c.9 0 1.7-.77 1.7-1.868V3.627h15.9c.9 0 1.7-.77 1.7-1.869C21 .77 20.3-.11 19.3-.11H1.7C.7 0 0 .77 0 1.868v19.343c0 .88.7 1.759 1.7 1.759Zm19.2 68.47c0-.99-.7-1.869-1.7-1.869H3.3V72.097c0-.99-.7-1.869-1.7-1.869-.9.11-1.6.88-1.6 1.869V91.44c0 .989.7 1.868 1.7 1.868h17.6c.8 0 1.6-.88 1.6-1.868Zm62.3-21.102c-.9 0-1.7.77-1.7 1.869V89.68H65.6c-.9 0-1.7.77-1.7 1.869 0 .989.7 1.868 1.7 1.868h17.6c.9 0 1.7-.77 1.7-1.868V72.097c0-.99-.8-1.759-1.7-1.759ZM83.2 0H65.6c-.9 0-1.6.77-1.6 1.868 0 .99.7 1.869 1.7 1.869h15.9V21.21c0 .99.7 1.869 1.7 1.869.9 0 1.7-.77 1.7-1.869V1.868C84.9.77 84.1 0 83.2 0Z"/><path d="M10.9 79.46c0 .99.7 1.869 1.7 1.869h16.6c.9 0 1.7-.77 1.7-1.869V61.216c0-.989-.7-1.868-1.7-1.868H12.6c-.9 0-1.7.77-1.7 1.868V79.46Zm3.4-16.485h13.3v14.617H14.3V62.975ZM29.2 11.98H12.6c-.9 0-1.7.769-1.7 1.868v18.244c0 .989.7 1.868 1.7 1.868h16.6c.9 0 1.7-.77 1.7-1.868V13.848c-.1-.99-.8-1.869-1.7-1.869Zm-1.7 18.243H14.3V15.717h13.3v14.508h-.1Zm46.4-16.375c0-.99-.7-1.869-1.7-1.869H55.7c-.9 0-1.7.77-1.7 1.869v18.244c0 .989.7 1.868 1.7 1.868h16.6c.9 0 1.7-.77 1.7-1.868V13.848h-.1Zm-3.3 16.376H57.3V15.716h13.3v14.508Zm3.3 49.236V61.216c0-.989-.7-1.868-1.7-1.868H55.7c-.9 0-1.7.77-1.7 1.868V79.46c0 .99.7 1.869 1.7 1.869h16.6c.9-.11 1.6-.88 1.6-1.869Zm-3.3-1.868H57.3V62.975h13.3v14.617Z"/><path d="M22.5 66.711h-3.3c-.9 0-1.7.77-1.7 1.869v3.627c0 .989.7 1.868 1.7 1.868h3.3c.9 0 1.7-.77 1.7-1.868V68.58c0-1.1-.7-1.869-1.7-1.869Zm-3.3-40.114h3.3c.9 0 1.7-.77 1.7-1.869v-3.627c0-.989-.7-1.868-1.7-1.868h-3.3c-.9 0-1.7.77-1.7 1.869v3.626c.1 1.1.8 1.869 1.7 1.869Zm43.1 0h3.3c.9 0 1.7-.77 1.7-1.869v-3.627c0-.989-.7-1.868-1.7-1.868h-3.3c-.9 0-1.7.77-1.7 1.869v3.626c.1 1.1.8 1.869 1.7 1.869Zm0 47.368h3.3c.9 0 1.7-.77 1.7-1.868V68.47c0-.99-.7-1.868-1.7-1.868h-3.3c-.9 0-1.7.769-1.7 1.868v3.627c.1.989.8 1.868 1.7 1.868ZM17.6 50.226c0 .989.7 1.868 1.7 1.868h21.5v9.122c0 .99.7 1.869 1.7 1.869s1.7-.77 1.7-1.869v-10.88c0-.99-.7-1.868-1.7-1.868H19.2c-.9 0-1.6.769-1.6 1.758Zm11.6-5.386c.9 0 1.7-.769 1.7-1.868 0-.989-.7-1.868-1.7-1.868H12.6c-.9 0-1.7.77-1.7 1.868 0 .99.7 1.869 1.7 1.869h16.6Zm6.6 0h6.6c.9 0 1.7-.769 1.7-1.868 0-.989-.7-1.868-1.7-1.868h-6.6c-.9 0-1.7.77-1.7 1.868 0 .99.8 1.869 1.7 1.869Zm0-32.86c-.9 0-1.7.769-1.7 1.868v18.244c0 .989.7 1.868 1.7 1.868h11.6v9.122c0 .99.7 1.868 1.7 1.868h6.6c.9 0 1.7-.769 1.7-1.868 0-.989-.7-1.868-1.7-1.868h-5v-9.122c0-.99-.7-1.868-1.7-1.868H37.5V13.848c0-.99-.8-1.869-1.7-1.869Zm36.5 29.234h-9.9c-.9 0-1.7.77-1.7 1.868 0 .99.7 1.868 1.7 1.868h9.9c.9 0 1.7-.769 1.7-1.868-.1-1.099-.8-1.868-1.7-1.868Zm0 7.254H55.7c-.9 0-1.7.769-1.7 1.868 0 .989.7 1.868 1.7 1.868h16.6c.9 0 1.7-.77 1.7-1.868-.1-1.1-.8-1.868-1.7-1.868ZM42.4 66.711h-6.6c-.9 0-1.7.77-1.7 1.869v10.88c0 .99.7 1.869 1.7 1.869.9 0 1.7-.77 1.7-1.869v-9.122h5c.9 0 1.7-.77 1.7-1.868 0-1.1-.9-1.759-1.8-1.759Z"/><path d="M47.4 77.592h-5c-.9 0-1.7.77-1.7 1.868 0 .99.7 1.869 1.7 1.869H49c.9 0 1.7-.77 1.7-1.869V57.59c0-.99-.7-1.869-1.7-1.869-.9 0-1.7.77-1.7 1.869v20.002h.1Zm1.7-50.995c.9 0 1.7-.77 1.7-1.869v-10.88c0-.99-.7-1.869-1.7-1.869-.9 0-1.7.77-1.7 1.869v9.122h-5c-.9 0-1.7.77-1.7 1.868 0 .99.7 1.868 1.7 1.868h6.7v-.11Z"/></g><defs><clipPath id="a"><path fill="#fff" d="M0 0h84.9v93.308H0z"/></clipPath></defs></svg>
